images/ico-tools-yellow.svg

<svg height="42" width="37" xmlns="http://www.w3.org/2000/svg"><path d="m32.915 16.888 1.571 20.912c.045 1.105-.314 2.166-1.078 2.962-.763.796-1.841 1.238-2.919 1.238h-.269c-1.123 0-2.156-.442-2.919-1.238-.763-.795-1.168-1.901-1.078-2.962l1.482-20.912c-2.425-1.326-4.087-4.465-4.087-8.002 0-4.775 3.009-8.665 6.692-8.665 3.682 0 6.691 3.89 6.691 8.665 0 3.537-1.617 6.676-4.086 8.002zm-2.56-15.385c-3.009 0-5.434 3.316-5.434 7.427 0 3.493 1.751 6.411 4.131 7.207l-1.571 21.795c-.135 1.504 1.122 2.83 2.694 2.83h.27c1.571 0 2.829-1.326 2.784-2.83l-1.572-21.795c2.38-.796 4.132-3.714 4.132-7.207 0-4.111-2.425-7.427-5.434-7.427zm-11.317 40.497h-.27c-1.122 0-2.155-.442-2.919-1.238-.763-.795-1.167-1.901-1.077-2.962l1.212-17.065c-1.033-.177-1.976-.708-2.694-1.504-.853-.972-1.213-2.254-1.033-3.537l1.841-11.937c.359-2.077 2.156-3.625 4.311-3.625 1.168 0 2.201.929 2.246 2.123l.628 11.096 1.752 24.449c.045 1.105-.315 2.167-1.078 2.962-.763.796-1.841 1.238-2.919 1.238zm.988-28.56-.629-11.097c0-.53-.449-.928-.988-.928-1.527 0-2.829 1.105-3.053 2.564l-1.842 11.937c-.314 1.945 1.213 3.669 3.189 3.669h.673l-1.302 18.347c-.135 1.504 1.123 2.83 2.694 2.83h.27c1.572 0 2.829-1.326 2.739-2.874zm-11.991 3.802 1.482 20.514c.045 1.105-.314 2.166-1.077 2.962-.764.795-1.842 1.238-2.919 1.238h-.27c-1.123 0-2.155-.443-2.919-1.238-.763-.796-1.167-1.901-1.078-2.962l1.482-20.47-1.167-1.105c-.988-.928-1.572-2.387-1.572-3.935v-1.149-.045l.224-9.018c.045-.973.719-1.813 1.662-1.99.135-.044.27-.044.404-.044.584 0 1.168.265 1.527.663.314-.31.674-.531 1.123-.619.135-.044.269-.044.404-.044.584 0 1.168.265 1.527.663.359-.398.943-.663 1.527-.663.134 0 .269 0 .404.044.943.221 1.662 1.017 1.662 1.99l.269 8.841v.133 1.194c0 1.548-.584 3.006-1.572 3.935zm1.438-4.952v-1.105l-.225-9.063c0-.398-.269-.707-.629-.796-.089 0-.134 0-.179 0-.449 0-.809.354-.809.796 0 0-.134 6.676-.179 8.577 0 .265-.27.486-.539.486-.314 0-.539-.221-.539-.486-.045-1.901-.18-8.577-.18-8.577 0-.442-.359-.796-.808-.796-.045 0-.135 0-.18 0-.359.089-.628.442-.628.796l-.18 8.533c0 .265-.269.486-.539.486-.314 0-.539-.221-.539-.486-.045-1.946-.179-8.577-.179-8.577 0-.443-.36-.796-.809-.796-.045 0-.134 0-.179 0-.36.088-.629.442-.629.796l-.225 9.019v1.193c0 1.194.449 2.343 1.168 3.051l1.572 1.503-1.527 21.088c-.135 1.504 1.123 2.83 2.694 2.83h.27c1.572 0 2.784-1.282 2.694-2.83l-1.527-21.088 1.572-1.503c.719-.708 1.168-1.857 1.168-3.051z" fill="#fcd139" fill-rule="evenodd"/></svg>

<svg 
 xmlns="http://www.w3.org/2000/svg"
 xmlns:xlink="http://www.w3.org/1999/xlink"
 width="37px" height="42px">
<path fill-rule="evenodd"  fill="#fcd139"
 d="M32.915,16.888 L34.486,37.800 C34.531,38.905 34.172,39.966 33.408,40.762 C32.645,41.558 31.567,42.000 30.489,42.000 L30.220,42.000 C29.097,42.000 28.064,41.558 27.301,40.762 C26.538,39.967 26.133,38.861 26.223,37.800 L27.705,16.888 C25.280,15.562 23.618,12.423 23.618,8.886 C23.618,4.111 26.627,0.221 30.310,0.221 C33.992,0.221 37.001,4.111 37.001,8.886 C37.001,12.423 35.384,15.562 32.915,16.888 ZM30.355,1.503 C27.346,1.503 24.921,4.819 24.921,8.930 C24.921,12.423 26.672,15.341 29.052,16.137 L27.481,37.932 C27.346,39.436 28.603,40.762 30.175,40.762 L30.445,40.762 C32.016,40.762 33.274,39.436 33.229,37.932 L31.657,16.137 C34.037,15.341 35.789,12.423 35.789,8.930 C35.789,4.819 33.364,1.503 30.355,1.503 ZM19.038,42.000 L18.768,42.000 C17.646,42.000 16.613,41.558 15.849,40.762 C15.086,39.967 14.682,38.861 14.772,37.800 L15.984,20.735 C14.951,20.558 14.008,20.027 13.290,19.231 C12.437,18.259 12.077,16.977 12.257,15.694 L14.098,3.757 C14.457,1.680 16.254,0.132 18.409,0.132 C19.577,0.132 20.610,1.061 20.655,2.255 L21.283,13.351 L23.035,37.800 C23.080,38.905 22.720,39.967 21.957,40.762 C21.194,41.558 20.116,42.000 19.038,42.000 ZM20.026,13.440 L19.397,2.343 C19.397,1.813 18.948,1.415 18.409,1.415 C16.882,1.415 15.580,2.520 15.356,3.979 L13.514,15.916 C13.200,17.861 14.727,19.585 16.703,19.585 L17.376,19.585 L16.074,37.932 C15.939,39.436 17.197,40.762 18.768,40.762 L19.038,40.762 C20.610,40.762 21.867,39.436 21.777,37.888 L20.026,13.440 ZM8.035,17.242 L9.517,37.756 C9.562,38.861 9.203,39.922 8.440,40.718 C7.676,41.513 6.598,41.956 5.521,41.956 L5.251,41.956 C4.128,41.956 3.096,41.513 2.332,40.718 C1.569,39.922 1.165,38.817 1.254,37.756 L2.736,17.286 L1.569,16.181 C0.581,15.253 -0.003,13.794 -0.003,12.246 L-0.003,11.097 L-0.003,11.052 L0.221,2.034 C0.266,1.061 0.940,0.221 1.883,0.044 C2.018,-0.000 2.153,-0.000 2.287,-0.000 C2.871,-0.000 3.455,0.265 3.814,0.663 C4.128,0.353 4.488,0.132 4.937,0.044 C5.072,-0.000 5.206,-0.000 5.341,-0.000 C5.925,-0.000 6.509,0.265 6.868,0.663 C7.227,0.265 7.811,-0.000 8.395,-0.000 C8.529,-0.000 8.664,-0.000 8.799,0.044 C9.742,0.265 10.461,1.061 10.461,2.034 L10.730,10.875 L10.730,11.008 L10.730,12.202 C10.730,13.750 10.146,15.208 9.158,16.137 L8.035,17.242 ZM9.473,12.290 L9.473,11.185 L9.248,2.122 C9.248,1.724 8.979,1.415 8.619,1.326 C8.530,1.326 8.485,1.326 8.440,1.326 C7.991,1.326 7.631,1.680 7.631,2.122 C7.631,2.122 7.497,8.798 7.452,10.699 C7.452,10.964 7.182,11.185 6.913,11.185 C6.599,11.185 6.374,10.964 6.374,10.699 C6.329,8.798 6.194,2.122 6.194,2.122 C6.194,1.680 5.835,1.326 5.386,1.326 C5.341,1.326 5.251,1.326 5.206,1.326 C4.847,1.415 4.578,1.768 4.578,2.122 L4.398,10.655 C4.398,10.920 4.129,11.141 3.859,11.141 C3.545,11.141 3.320,10.920 3.320,10.655 C3.275,8.709 3.141,2.078 3.141,2.078 C3.141,1.635 2.781,1.282 2.332,1.282 C2.287,1.282 2.198,1.282 2.153,1.282 C1.793,1.370 1.524,1.724 1.524,2.078 L1.299,11.097 L1.299,12.290 C1.299,13.484 1.748,14.633 2.467,15.341 L4.039,16.844 L2.512,37.932 C2.377,39.436 3.635,40.762 5.206,40.762 L5.476,40.762 C7.048,40.762 8.260,39.480 8.170,37.932 L6.643,16.844 L8.215,15.341 C8.934,14.633 9.383,13.484 9.383,12.290 L9.473,12.290 Z"/>
</svg>
